src/img/icon-clock.svg

<svg width="19" height="20" viewBox="0 0 19 20" fill="none" xmlns="http://www.w3.org/2000/svg">
<path d="M9.5 0.55957C4.25273 0.55957 0 4.8123 0 10.0596C0 15.3068 4.25273 19.5596 9.5 19.5596C14.7473 19.5596 19 15.3068 19 10.0596C19 4.8123 14.7473 0.55957 9.5 0.55957ZM9.5 17.7783C5.24355 17.7783 1.78125 14.3156 1.78125 10.0596C1.78125 5.8035 5.24355 2.34082 9.5 2.34082C13.7564 2.34082 17.2188 5.8035 17.2188 10.0596C17.2188 14.3156 13.7564 17.7783 9.5 17.7783ZM13.2889 11.2174L10.3906 9.54375V5.0127C10.3906 4.52285 9.99356 4.12207 9.5 4.12207C9.00644 4.12207 8.60938 4.52285 8.60938 5.0127V10.0596C8.60938 10.3779 8.77926 10.6719 9.05469 10.8307L12.3968 12.7604C12.5355 12.8094 12.658 12.8799 12.8398 12.8799C13.1471 12.8799 13.447 12.7204 13.6117 12.4346C13.8604 12.0078 13.7119 11.4623 13.2889 11.2174Z" fill="black"/>
</svg>

<svg xmlns="http://www.w3.org/2000/svg" fill="#000" width="19" height="20" viewBox="0 0 19 20">
  <path d="M9.5.56a9.5 9.5 0 0 0-9.5 9.5 9.5 9.5 0 0 0 9.5 9.5 9.5 9.5 0 0 0 9.5-9.5A9.5 9.5 0 0 0 9.5.56zm0 17.218c-4.256 0-7.719-3.462-7.719-7.718.003-4.257 3.466-7.72 7.72-7.72s7.72 3.463 7.72 7.72c.001 4.256-3.462 7.718-7.719 7.718zm3.789-6.56L10.39 9.543v-4.53a.89.89 0 0 0-1.782 0v5.047c0 .318.17.612.446.77l3.342 1.93c.139.05.26.12.443.12a.89.89 0 0 0 .772-.445.89.89 0 0 0-.323-1.218z"/>
</svg>
